X: 68
T:Village Hornpipe
M:2/4
L:1/16
Z:abc by Bruce Osborne - bosborne@kos.net
K:D
A,2|D3D DFEF|DFAB A2Bc|dcdB AFDF|EFED B,2A,2|!
D3D DFEF|DFAB A2Bc|dfab ageg|f2d2 d2:|!
|:fg|a3b agef|gefd edBc|dBBA B2ab|agef gefg|!
a3b agef|gefd edBc|dcdB AFDF|E2D2 D2:|!
